svgs/sharp-regular/house-flag.svg

<svg xmlns="http://www.w3.org/2000/svg" viewBox="0 0 640 512"><!--! Font Awesome Pro 6.6.0 by @fontawesome - https://fontawesome.com License - https://fontawesome.com/license (Commercial License) Copyright 2024 Fonticons, Inc. --><path d="M496 0L448 0l0 24 0 8 0 160 0 320 48 0 0-320 144 0 0-160L496 32l0-8 0-24zM416 133L286.3 36.7 272.1 26.2 257.8 36.6 27.5 205.4 8.2 219.6l28.4 38.7 19.4-14.2 8.1-5.9L64 488l0 24 24 0 104 0 0 .6 48 0 0-.6 64 0 0 .6 48 0 0-.6 64 0 0-48-64 0 0-136 0-24-24 0-112 0-24 0 0 24 0 136-80 0 0-245.6 0-15.4L271.9 85.8 416 192.7l0-59.8zM304 352l0 112-64 0 0-112 64 0z"/></svg>

<svg xmlns="http://www.w3.org/2000/svg" viewBox="0 0 640 512"><!--! Font Awesome Pro 6.4.2 by @fontawesome - https://fontawesome.com License - https://fontawesome.com/license (Commercial License) Copyright 2023 Fonticons, Inc. --><path d="M496 0H448V24v8V192 512h48V192H640V32H496V24 0zM416 133L286.3 36.7 272 26.1 257.7 36.7 19.4 213.5 .2 227.8l28.6 38.5L48 252.1l16-11.9V488v24H88 192v.6h48V512l64 0v.6h48V512l64 0V464H352V328 304H328 216 192v24V464H112V218.4 204.6L272 85.9 416 192.7V133zM304 352V464l-64 0V352h64z"/></svg>
